src/24/actions/new-24h-appointment.svg

<svg xmlns="http://www.w3.org/2000/svg" width="24" height="24" version="1.1" viewBox="0 0 24 24">
 <defs>
  <style id="current-color-scheme" type="text/css">
   .ColorScheme-Text { color:#5d656b; } .ColorScheme-Highlight { color:#5294e2; }
  </style>
 </defs>
 <path style="fill:currentColor" class="ColorScheme-Text" d="M 11.5,5 A 7.5,7.5 0 0 0 4,12.5 7.5,7.5 0 0 0 11.5,20 7.5,7.5 0 0 0 19,12.5 7.5,7.5 0 0 0 11.5,5 Z M 7,8 l 3,0 1,0 0,1 0,3 0,1 -3,0 0,3 3,0 0,1 -4,0 0,-1 0,-3 0,-1 1,0 2,0 0,-3 -3,0 0,-1 z m 5,0 1,0 0,4 2,0 0,-4 1,0 0,4 0,1 0,4 -1,0 0,-4 -3,0 0,-1 0,-4 z"/>
</svg>

<svg xmlns="http://www.w3.org/2000/svg" width="24" height="24"><defs><style id="current-color-scheme" type="text/css"></style></defs><path d="M11.5 5A7.5 7.5 0 0 0 4 12.5a7.5 7.5 0 0 0 7.5 7.5 7.5 7.5 0 0 0 7.5-7.5A7.5 7.5 0 0 0 11.5 5zM7 8h4v5H8v3h3v1H7v-5h3V9H7V8zm5 0h1v4h2V8h1v9h-1v-4h-3V8z" fill="currentColor" color="#5d656b"/></svg>
